X:98
T:POSIE- The Posie
S:Scots Musical Museum #373
Q:1/4=100
L:1/8
M:C
K:Cm
G2|c =B c d e2 d c|g g f e {e/}d2(c=B)|c =B  c d e2G|\
A G F E F2 z G|c G G G c G G G |A G F E D2 E3/2F/2|\
G3/2 =A/2 =B3/2 c/2 c G G3/2 F/2|E2~D2C2|]

